X:911
T:Xiraldilla (CT 448)
R:Xiraldilla
C:Tradicional
S:Msica Tradicional Asturiana, (C) Tello & Tito. Asturies, 2001.
S:http://pagina.de/MusTradAst <telloytito@asturies.org>
N:Cancin de corro de nias, transcrita en Cenera, ayuntamiento de Mieres.
A:Asturies
O:Cenera (Mieres)
Z:Cancioneru de Torner 448
M:2/4
L:1/8
Q:1/4=160
K:C
G
|AA Bc|BA GG|c2 dd|e2 ze|ed ef|ed Bc|dd dd|dc AB|c2 BA|G2 ||
W:El rel da las cuatro,
W:da las tres y las dos,
W:la una con la media,
W:resalada, sandunguera,
W:y da el cuarto y adios.
W:
